source/img/footer/htmlacademy-1.svg

<svg width="27" height="35" viewBox="0 0 27 35" fill="none" xmlns="http://www.w3.org/2000/svg">
<path d="M13.65 0.449951H13.55L0.0500031 1.84995V26.55L13.55 34.5499L26.95 26.55V1.84995L13.65 0.449951ZM25.05 12.55L13.55 5.74995V5.64995H13.45L13.35 5.54995V5.64995L1.95 12.55V3.54995L13.45 2.34995L25.05 3.54995V12.55ZM13.45 7.24995L24.95 13.95L20.45 16.55L13.35 12.35V13.75L19.25 17.25L18.35 17.75L13.35 14.75V16.15L17.15 18.45L16.35 18.95L13.35 17.15V18.55L15.25 19.65L13.45 20.75L2.05 14.05L13.45 7.24995ZM1.95 15.55L13.35 22.35V23.35L5.45 18.65V20.05L13.45 24.85V25.95L5.45 21.25V22.65L13.45 27.45L21.55 22.55V17.35L24.95 15.35V25.35L13.45 32.25L1.95 25.45V15.55Z" fill="black"/>
</svg>

<svg width="27" height="35" fill="none" xmlns="http://www.w3.org/2000/svg"><path d="M13.65.45h-.1L.05 1.85v24.7l13.5 8 13.4-8V1.85L13.65.45Zm11.4 12.1-11.5-6.8v-.1h-.1l-.1-.1v.1l-11.4 6.9v-9l11.5-1.2 11.6 1.2v9Zm-11.6-5.3 11.5 6.7-4.5 2.6-7.1-4.2v1.4l5.9 3.5-.9.5-5-3v1.4l3.8 2.3-.8.5-3-1.8v1.4l1.9 1.1-1.8 1.1-11.4-6.7 11.4-6.8Zm-11.5 8.3 11.4 6.8v1l-7.9-4.7v1.4l8 4.8v1.1l-8-4.7v1.4l8 4.8 8.1-4.9v-5.2l3.4-2v10l-11.5 6.9-11.5-6.8v-9.9Z" fill="#000"/></svg>
